X:455
T: Creamer's Reel
S: "First Collection of Traditional Irish Music" (M.Mulvihill)
Z: B.Black
L: 1/8
M: 4/4
R: reel
K: D
e|A2 AB AFDF|AFAd f3 g|afef dBBc|dBAF FEDF|
AFAB AFDF|AFAd f3 g|afef dBAF|Adfe d3 :|
e|fded BAFA|dcdf a2 af|fefd edBc|dBAF FEDF|
A2 AB AFDF|AFAd f3 g|afef dBAF|Adfe d3 :|
